X:13
T:J'ai passe devant ta porte (Steve Riley with Chords alt.)
R:waltz
N:This is a more exact notation, but harder to read
M:3/4
L:1/8
Q:1/4=90
K:C
"C"[CE]e[Gg] d[Ff] c|[E3G3e3] B[Dd] G|[C3E3c3] B[Dd] c|[E5G5e5] c|[EG]\
d[Ff] c[EG] B|[D3d3] G[Cc] A|{A}[D3B3] G[Cc] B|[D5d5] B|[Dd]
e[Gg] d[Ff] c|[E5G5e5] c|[EG] d[Ff] e[Gg] f|[Afa][Afa][Afa][Afa][Afa]f| [Afa] \
e[Gg] d[Ff] c|[E3G3e3] c[EG] B|[D3d3] B[Dd] G|[C5E5c5] G||
